X:1
T:tu nous guideras au sentier de vie 
%%score { ( 1 2 ) | ( 3 4 ) }
L:1/8
Q:1/4=80
M:2/4
K:G
V:1 treble nm="Piano" snm="Pno"
V:2 treble 
V:3 bass 
V:4 bass 
V:1
 DE GA | B2 AG | E2 G2 | D2 D2 | DE GA | B2 AG | E2 D2 | G4 ||[M:5/4] !stemless!B8 d2 | %9
w: Tu nous gui de|ras au sen|tier de|vie *|tu nous ou vri|ras ta mai|son sei|gneur|Acclamez..le..Seigneur,..terre..en tière|
 !stemless!G8 B2 | !stemless!E8 G2 |] %11
w: servez..le..Seigneur..dans..l’allé gresse|venez..à..lui..avec..des..chants..de joie|
V:2
 B,D CC | D2 DB, | C2 C2 | A,2 A,2 | B,D CC | D2 DB, | C2 A,2 | B,4 ||[M:5/4] D8 D2 | B,8 B,2 | %10
 C8 B,2 |] %11
V:3
 G,G, G,F, | G,2 F,G, | A,2 A,2 | F,2 F,2 | G,G, G,F, | G,2 F,G, | A,2 F,2 | G,4 || %8
[M:5/4] !stemless!G,8 G,2 | !stemless!G,8 G,2 | %10
"_Acclamez le Seigneur, terre entière,   servez le Seigneur dans l’allégresse,   venez à lui avec des chants de joie !\nReconnaissez que le Seigneur est \nDieu\n   il nous a faits, et nous sommes à \nlui,\n   nous, son peuple, son trou\npeau\n.\nOui, le Seigneur est bon,      éternel est son amour,     sa fidélité demeure d’âge en âge." !stemless!G,8 G,2 |] %11
V:4
 G,C, E,D, | G,,2 D,E, | E,2 A,,2 | D,2 D,2 | G,C, E,D, | G,,2 D,E, | A,,2 D,2 | G,,4 || %8
[M:5/4] G,,8 B,,2 | E,8 E,2 | C,8 G,,2 |] %11

